actions/22x22-light/format-text-blockquote.svg

<svg xmlns="http://www.w3.org/2000/svg" viewBox="0 0 22 22">
 <defs id="defs3051">
   <style type="text/css" id="current-color-scheme">
     .ColorScheme-Text {
       color:#4d4d4d;
     }
     </style>
 </defs>
   <path
      style="fill:currentColor;fill-opacity:1;stroke:none"
      d="m10 6a2 2 0 0 0 -2 2v1 2h2v-2h-1v-1a1 1 0 0 1 1-1zm4 0a2 2 0 0 0 -2 2v1 2h2v-2h-1v-1a1 1 0 0 1 1-1z"
      class="ColorScheme-Text" />
</svg>

<svg xmlns="http://www.w3.org/2000/svg" viewBox="0 0 22 22">
  <defs id="defs3051">
    <style type="text/css" id="current-color-scheme">
      .ColorScheme-Text {
        color:#4d4d4d;
      }
      </style>
  </defs>
 <path 
    style="fill:currentColor;fill-opacity:1;stroke:none" 
    d="M 10 6 A 2 2 0 0 0 8 8 L 8 9 L 8 11 L 10 11 L 10 9 L 9 9 L 9 8 A 1 1 0 0 1 10 7 L 10 6 z M 14 6 A 2 2 0 0 0 12 8 L 12 9 L 12 11 L 14 11 L 14 9 L 13 9 L 13 8 A 1 1 0 0 1 14 7 L 14 6 z "
    class="ColorScheme-Text"
    />  
</svg>
